ALTDEU
CUT[Froehlich in Ehren]
REG[Europa, Mitteleuropa, Deutschland]
TRD[]
FKT[]
SIG[A0343]
KEY[A0343   04  G 4/4]
MEL[5  5565  4_4
    3  4322  3_0
    2  2345  6_6
    5  4322  1_0
    6  6654  323
    5  6654  323
    5  7654#  5_0
    6  7654#  5_0
    3  3234  5_2
    3  3234  5_2
    4  3422  1_0 //]
BEM[]
MEL_SEM[0 0 2 -2 -2 0 -1 1 -1 -2 0 2 -2 0 2 1 2 2 0 -2 -2 -1 -2 0 -2 9 0 0 -2 -2 -1 -2 2 3 2 0 -2 -2 -1 -2 2 3 4 -2 -2 -1 1 2 2 -2 -2 -1 1 -3 0 -2 2 1 2 -5 2 0 -2 2 1 2 -5 3 -1 1 -3 0 -2]
MEL_RAW[5  5565  44
    3  4322  30
    2  2345  66
    5  4322  10
    6  6654  323
    5  6654  323
    5  7654#  50
    6  7654#  50
    3  3234  52
    3  3234  52
    4  3422  10]
NO_REP[5654
    343230
    23456
    543210
    654323
    5654323
    57654#50
    67654#50
    323452
    323452
    434210]
RTM[x  xxxx  x_x
    x  xxxx  x_x
    x  xxxx  x_x
    x  xxxx  x_x
    x  xxxx  xxx
    x  xxxx  xxx
    x  xxxx  x_x
    x  xxxx  x_x
    x  xxxx  x_x
    x  xxxx  x_x
    x  xxxx  x_x]
SCL_DEG[12344#567]
SCL_SEM[2 2 1 1 1 2 2]

